Production/EA4S_WordDrawings/SVG/singles_SVG/nest.svg

<?xml version="1.0" encoding="UTF-8" standalone="no"?><!DOCTYPE svg PUBLIC "-//W3C//DTD SVG 1.1//EN" "http://www.w3.org/Graphics/SVG/1.1/DTD/svg11.dtd"><svg width="100%" height="100%" viewBox="0 0 541 351" version="1.1" xmlns="http://www.w3.org/2000/svg" xmlns:xlink="http://www.w3.org/1999/xlink" xml:space="preserve" style="fill-rule:evenodd;clip-rule:evenodd;stroke-linejoin:round;stroke-miterlimit:1.41421;"><g id="nest"><path d="M107.217,162.043c8.148,-20.065 15.723,-39.764 29.438,-56.85c13.422,-16.723 32.021,-29.025 53.697,-30.968c11.224,-1.006 22.094,0.597 31.352,7.312c8.07,5.854 12.975,15.489 16.503,24.529c7.378,18.896 10.478,39.553 11.581,59.717c0.656,11.968 0.654,24.687 -4.52,35.749c-4.028,8.611 7.471,9.873 11.725,4.078c5.975,-8.139 7.004,-18.693 7.467,-28.486c0.525,-11.09 -0.582,-22.274 -2.113,-33.246c-2.768,-19.825 -7.256,-40.144 -17.721,-57.427c-5.229,-8.635 -12.875,-15.78 -22.215,-19.719c-10.6,-4.47 -22.703,-4.255 -33.871,-2.452c-21.934,3.541 -40.539,15.576 -55.15,31.966c-15.742,17.656 -28.713,42.011 -32.438,65.504c-0.676,4.27 5.09,3.19 6.265,0.293Z" style="fill-rule:nonzero;"/><path d="M259.715,134.529c0.412,-3.745 1.695,-7.328 2.49,-11.009c0.682,-3.155 1.428,-6.384 2.605,-9.396c2.116,-5.415 4.503,-8.937 8.443,-12.25c3.408,-2.866 8.104,-4.931 13.422,-6.385c5.627,-1.539 12.137,-1.95 18.33,-1.923c29.709,0.13 60.631,12.652 85.289,28.518c7.34,4.724 14.221,10.089 20.326,16.341c5.855,5.999 8.469,10.851 11.965,18.006c3.631,-3.868 7.26,-7.735 10.889,-11.604c-3.471,-1.02 -6.361,-0.211 -9.818,0.198c-2.652,0.313 -5.213,2.652 -5.131,5.453c0.129,4.499 2.561,6.565 6.32,8.527c6.377,3.328 14.389,-4.62 12.561,-11.022c-1.555,-5.45 -5.723,-10.635 -9.244,-14.993c-4.105,-5.082 -8.965,-9.536 -14.039,-13.627c-12.076,-9.732 -25.602,-17.414 -39.814,-23.565c-26.635,-11.527 -59.543,-19.812 -88.24,-11.492c-10.281,2.981 -19.877,9.063 -25.956,17.993c-3.228,4.741 -5.329,10.004 -6.327,15.646c-0.529,3 -0.574,5.953 -0.336,8.981c0.246,3.111 1.697,5.824 2.549,8.8c0.556,1.941 3.566,0.177 3.716,-1.197Z" style="fill:#010101;fill-rule:nonzero;"/><path d="M194.479,70.552c1.834,-9.14 2.791,-17.62 8.029,-25.649c4.934,-7.559 11.781,-13.768 19.318,-18.648c15.911,-10.306 35.1,-15.368 53.885,-12.059c20.734,3.654 38.863,17.166 49.186,35.394c4.322,7.631 8.346,15.455 11.664,23.578c1.529,3.746 2.984,7.652 3.598,11.664c0.24,1.567 0.281,3.12 0.184,3.758c-0.184,1.187 -0.549,1.834 -0.502,3.186c0.059,1.672 0.371,-1.337 -0.049,0.151c-1.545,5.471 5.01,7.263 8.785,4.906c9.197,-5.739 7.834,-15.383 5.057,-24.368c-2.863,-9.261 -7.658,-17.995 -12.422,-26.389c-11.111,-19.585 -26.623,-34.438 -48.295,-41.683c-21.01,-7.024 -42.974,-3.307 -62.627,5.849c-18.46,8.598 -35.328,23.434 -41.291,43.399c-1.717,5.752 -2.26,13.038 0.299,18.58c1.189,2.575 4.775,0.348 5.181,-1.669Z" style="fill:#010101;fill-rule:nonzero;"/><path d="M62.87,112.916c-13.471,3.706 -5.746,20.155 -1.174,27.709c8.398,13.875 20.229,25.912 31.672,37.286c28.462,28.292 64.953,46.153 103.502,56.473c43.207,11.566 88.814,13.335 133.201,9.401c22.389,-1.984 44.598,-5.648 66.557,-10.413c21.375,-4.638 43.295,-10.397 62.598,-20.822c3.072,-1.66 4.98,-8.847 -0.451,-8.034c-23.672,3.544 -46.783,11.079 -70.273,15.895c-24.695,5.063 -49.857,8.144 -75.029,9.376c-49.984,2.446 -101.148,-3.34 -147.627,-22.651c-16.528,-6.867 -33.234,-15.444 -47.58,-26.222c-0.402,-0.303 -0.799,-0.613 -1.195,-0.924c1.158,0.907 -0.902,-0.733 -1.174,-0.955c-1.719,-1.401 -3.412,-2.835 -5.098,-4.277c-4.498,-3.849 -8.928,-7.784 -13.283,-11.795c-9.486,-8.736 -18.643,-17.956 -26.539,-28.174c-2.847,-3.685 -5.261,-7.555 -7.049,-11.858c-0.521,-1.255 -0.965,-2.739 -0.764,-4.032c0.061,-0.398 1.063,-3.4 0.258,-1.13c0.176,-0.497 0.477,-0.812 0.879,-1.18c1.647,-1.508 1.234,-4.407 -1.431,-3.673Z" style="fill:#010101;fill-rule:nonzero;"/><path d="M126.746,214.573c11.718,7.948 25.466,11.817 39.171,14.833c14.229,3.13 28.912,4.361 43.441,5.018c30.297,1.369 60.154,-1.961 89.721,-8.55c50.039,-11.151 99.789,-29.792 144.594,-54.755c20.006,-11.147 39.066,-24.273 56.158,-39.54c8.479,-7.573 16.379,-15.827 23.564,-24.635c3.73,-4.573 7.197,-9.398 10.18,-14.49c2.895,-4.939 5.99,-9.102 6.59,-14.906c0.473,-4.586 -4.229,-4.932 -7.123,-2.538c-4.688,3.876 -7.455,8.681 -11.27,13.339c-3.963,4.838 -7.785,9.764 -11.883,14.495c-7.707,8.901 -16.352,17.003 -25.369,24.558c-18.705,15.674 -39.793,28.385 -61.473,39.479c-21.443,10.972 -43.805,20.028 -66.482,28.104c-27.039,9.629 -54.729,17.654 -83.031,22.59c-23.928,4.172 -48.041,5.297 -72.291,4.498c-24.59,-0.811 -47.82,-6.021 -71.416,-12.562c-2.478,-0.687 -5.602,3.352 -3.081,5.062Z" style="fill:#010101;fill-rule:nonzero;"/><path d="M3.022,131.537c9.887,-7.535 21.504,-13.038 32.77,-18.179c12.031,-5.491 24.824,-9.521 37.625,-12.77c12.686,-3.22 25.646,-5.332 38.648,-6.771c6.19,-0.685 12.404,-1.14 18.623,-1.451c5.852,-0.293 11.753,0.486 17.553,0.141c6.959,-0.416 11.777,-13.077 2.69,-12.556c-3.376,0.194 -6.368,1.251 -8.892,3.553c-1.223,1.116 -2.662,3.362 -1.777,5.102c1.324,2.604 3.532,3.659 6.398,3.828c1.951,-4.136 3.9,-8.272 5.85,-12.409c-5.92,-0.336 -12.092,0.588 -18.014,1.032c-6.727,0.506 -13.43,1.121 -20.121,1.981c-13.994,1.799 -27.863,4.637 -41.454,8.419c-13.207,3.675 -26.019,8.536 -38.319,14.585c-12.422,6.108 -23.096,14.275 -33.297,23.538c-1.633,1.483 0.004,3.261 1.717,1.957Z" style="fill:#010101;fill-rule:nonzero;"/><path d="M346.018,73.958c12.271,1.828 24.525,2.279 36.742,4.851c13.531,2.847 26.664,7.006 39.631,11.758c12.883,4.722 25.396,10.332 37.695,16.402c11.857,5.852 23.283,12.764 35.686,17.302c2.662,0.975 7.859,-2.764 5.131,-5.506c-8.986,-9.034 -20.529,-15.161 -31.889,-20.828c-12.826,-6.398 -26.129,-11.845 -39.658,-16.563c-13.311,-4.641 -27.072,-8.219 -40.932,-10.762c-12.793,-2.346 -27.197,-4.739 -40.209,-3.078c-2.648,0.338 -6.468,5.788 -2.197,6.424Z" style="fill:#010101;fill-rule:nonzero;"/><path d="M94.859,110.371c-20.069,6.539 -31.614,29.982 -35.846,49.228c-4.775,21.721 -0.901,44.11 8.433,64.017c19.232,41.016 52.58,73.668 91.998,95.422c39.484,21.791 84.871,32.286 129.848,31.727c23.656,-0.294 47.373,-4.095 70.025,-10.883c27.152,-8.137 52.078,-21.686 75.615,-37.236c12.5,-8.259 24.195,-17.394 35.262,-27.478c3.133,-2.854 0.982,-7.771 -3.197,-5.332c-24.336,14.203 -47.336,30.577 -72.689,43.045c-23.328,11.472 -48.287,18.939 -74.063,22.261c-44.182,5.694 -90.116,-0.924 -131.091,-18.29c-41.331,-17.519 -76.999,-46.565 -100.884,-84.719c-11.822,-18.882 -19.746,-39.341 -19.447,-61.856c0.141,-10.651 2.324,-21.328 6.68,-31.054c4.568,-10.198 11.896,-17.297 19.488,-25.17c0.313,-0.311 0.625,-0.621 0.938,-0.932c1.11,-1.105 0.984,-3.419 -1.07,-2.75Z" style="fill:#010101;fill-rule:nonzero;"/><path d="M497.782,139.077c-1.5,11.889 0.012,24.311 0.051,36.27c0.035,11.424 -1.92,22.478 -5.02,33.438c-5.604,19.812 -15.58,38.274 -27.725,54.807c-12.035,16.385 -26.586,30.771 -42.205,43.724c-7.803,6.47 -15.91,12.662 -24.32,18.321c-8.57,5.768 -17.775,11.087 -25.891,17.468c-2.264,1.779 -1.439,5.624 1.805,4.639c9.465,-2.873 18.957,-8.461 27.301,-13.699c9.527,-5.98 18.752,-12.372 27.563,-19.369c17.23,-13.683 32.744,-29.638 45.771,-47.375c12.902,-17.565 22.855,-37.111 29.057,-58.011c3.293,-11.095 5.125,-22.312 5.047,-33.896c-0.084,-12.563 -1.461,-26.31 -4.824,-38.445c-0.968,-3.49 -6.308,-0.273 -6.61,2.128Z" style="fill:#010101;fill-rule:nonzero;"/><path d="M114.383,242.572c7.529,22.802 26.59,38.475 47.048,49.717c24.37,13.393 51.54,23.328 78.542,29.776c56.426,13.476 115.563,8.729 170.146,-10.22c22.707,-7.883 45.137,-18.066 64.625,-32.215c1.951,-1.416 1.182,-5.264 -1.578,-4.059c-27.734,12.11 -54.586,25.38 -83.852,33.654c-27.943,7.901 -56.975,11.574 -86,11.079c-29.393,-0.502 -58.607,-5.959 -86.566,-14.885c-13.836,-4.417 -27.365,-9.979 -40.611,-15.919c-10.928,-4.9 -21.473,-10.443 -31.193,-17.477c-11.365,-8.224 -20.461,-19.537 -28.34,-31.039c-0.748,-1.092 -2.561,0.56 -2.221,1.588Z" style="fill:#010101;fill-rule:nonzero;"/><path d="M184.149,262.128c4.24,3.275 8.383,6.948 13.136,9.479c5.198,2.767 10.7,4.906 16.291,6.727c11.773,3.834 24.063,5.899 36.319,7.454c22.633,2.871 45.447,5.175 68.277,5.274c48.318,0.211 97.268,-8.927 141.432,-28.755c13.832,-6.21 27.033,-13.804 39.352,-22.643c11.873,-8.519 23.395,-18.166 31.439,-30.458c2.24,-3.424 -1.328,-5.899 -4.254,-3.373c-8.676,7.493 -17.021,15.406 -26.125,22.412c-9.252,7.12 -19.197,13.277 -29.488,18.77c-21.373,11.406 -44.445,19.355 -67.961,24.999c-23.762,5.703 -48.092,8.688 -72.486,9.754c-23.203,1.013 -46.238,-0.843 -69.346,-2.736c-12.973,-1.063 -25.913,-2.546 -38.691,-5.048c-6.502,-1.274 -12.988,-2.956 -19.248,-5.133c-6.098,-2.121 -12.383,-4.234 -17.67,-8.01c-0.635,-0.452 -1.668,0.753 -0.977,1.287Z" style="fill:#010101;fill-rule:nonzero;"/><path d="M64.538,85.523c4.829,-2.159 9.125,-5.681 13.572,-8.526c5.193,-3.322 10.572,-6.367 16.016,-9.26c11.031,-5.865 22.588,-10.682 34.404,-14.719c23.287,-7.955 48.715,-13.083 73.415,-11.438c1.109,-3.243 2.22,-6.486 3.329,-9.729c-3.076,-0.039 -5.609,0.335 -8.447,1.528c-2.131,0.896 -5.522,4.764 -2.27,6.602c2.795,1.578 5.455,1.696 8.619,1.656c5.459,-0.068 9.207,-9.71 2.098,-9.786c-26.387,-0.283 -52.392,4.905 -77.137,13.919c-12.441,4.531 -24.514,10.127 -36.076,16.569c-5.424,3.022 -10.672,6.332 -15.791,9.845c-4.768,3.271 -9.98,6.658 -13.527,11.292c-1.166,1.524 0.256,2.735 1.795,2.047Z" style="fill:#010101;fill-rule:nonzero;"/><path d="M318.364,28.839c14.096,-1.069 27.771,-0.196 41.545,3.024c14.107,3.298 27.674,8.617 41.068,14.055c11.828,4.802 22.01,9.438 33.629,16.193c13.936,8.102 27.615,16.71 40.795,25.994c8.104,5.709 21.654,13.991 25.354,22.588c0.195,0.454 0.719,2.276 0.523,0.901c0.162,1.132 0.074,-2.96 -0.014,0.584c0.023,-0.995 0.355,-1.671 1.027,-2.379c-1.215,1.281 -2.916,5.344 0.352,5.555c4.746,0.307 8.443,-3.654 8.086,-8.387c-0.311,-4.089 -5.287,-7.892 -8.119,-10.292c-11.391,-9.659 -23.936,-17.834 -36.568,-25.753c-12.42,-7.786 -25.094,-15.243 -38.107,-22.001c-3.848,-1.999 -7.742,-3.616 -11.783,-5.165c-12.73,-4.88 -25.424,-9.844 -38.469,-13.833c-18.596,-5.688 -40.162,-10.344 -59.096,-3.758c-1.174,0.41 -2.139,2.82 -0.223,2.674Z" style="fill:#010101;fill-rule:nonzero;"/><path d="M192.065,12.043c-10.512,-0.234 -20.883,2.769 -30.844,5.851c-10.578,3.273 -20.908,7.239 -31.026,11.73c-20.104,8.925 -39.004,21.29 -54.921,36.493c-35.063,33.488 -51.439,82.512 -39.49,129.999c3.988,15.847 11.209,30.645 19.58,44.6c8.496,14.166 18.941,28.033 31.014,39.355c1.996,1.873 6.427,-1.125 5.097,-3.638c-6.288,-11.881 -13.966,-23.153 -21.079,-34.553c-7.084,-11.35 -13.342,-23.25 -18.299,-35.679c-9.859,-24.726 -11.396,-51.006 -4.637,-76.718c11.561,-43.969 47.537,-73.722 86.773,-93.039c9.279,-4.569 18.885,-8.44 28.639,-11.871c9.818,-3.453 19.849,-6.306 29.295,-10.722c0.841,-0.392 1.037,-1.782 -0.102,-1.808Z" style="fill-rule:nonzero;"/><path d="M379.938,33.838c10.141,2.671 19.736,5.466 29.082,10.39c9.77,5.147 18.943,11.54 27.52,18.473c16.023,12.953 27.471,30.808 34.246,50.136c6.736,19.218 8.305,40.26 5.396,60.357c-1.457,10.067 -4.182,19.957 -7.906,29.415c-1.84,4.678 -3.701,9.35 -5.855,13.896c-1.668,3.523 -3.896,6.997 -4.295,10.155c-0.488,3.872 4.111,2.407 5.359,0.251c1.607,-2.779 5.316,-6.913 7.43,-10.325c2.932,-4.733 5.463,-9.678 7.525,-14.851c4.107,-10.302 6.787,-21.13 8.27,-32.108c2.889,-21.408 0.652,-43.304 -6.68,-63.625c-7.354,-20.383 -20.453,-38.377 -37.473,-51.725c-9.471,-7.428 -20.057,-13.537 -31.148,-18.181c-9.48,-3.968 -20.719,-7.586 -30.959,-4.643c-0.965,0.279 -1.903,2.019 -0.512,2.385Z" style="fill-rule:nonzero;"/></g></svg>

<?xml version="1.0" encoding="UTF-8"?>
<svg width="541px" height="351px" viewBox="0 0 541 351" version="1.1" xmlns="http://www.w3.org/2000/svg" xmlns:xlink="http://www.w3.org/1999/xlink">
    <!-- Generator: Sketch 41 (35326) - http://www.bohemiancoding.com/sketch -->
    <title>nest</title>
    <desc>Created with Sketch.</desc>
    <defs></defs>
    <g id="Page-1" stroke="none" stroke-width="1" fill="none" fill-rule="evenodd">
        <g id="Layer_1" transform="translate(-3681.000000, -2803.000000)">
            <g id="Layer_1_3_">
                <g id="nest" transform="translate(3681.000000, 2803.000000)">
                    <path d="M107.217,162.043 C115.365,141.978 122.94,122.279 136.655,105.193 C150.077,88.47 168.676,76.168 190.352,74.225 C201.576,73.219 212.446,74.822 221.704,81.537 C229.774,87.391 234.679,97.026 238.207,106.066 C245.585,124.962 248.685,145.619 249.788,165.783 C250.444,177.751 250.442,190.47 245.268,201.532 C241.24,210.143 252.739,211.405 256.993,205.61 C262.968,197.471 263.997,186.917 264.46,177.124 C264.985,166.034 263.878,154.85 262.347,143.878 C259.579,124.053 255.091,103.734 244.626,86.451 C239.397,77.816 231.751,70.671 222.411,66.732 C211.811,62.262 199.708,62.477 188.54,64.28 C166.606,67.821 148.001,79.856 133.39,96.246 C117.648,113.902 104.677,138.257 100.952,161.75 C100.276,166.02 106.042,164.94 107.217,162.043 L107.217,162.043 Z" id="Shape" fill="#000000"></path>
                    <path d="M259.715,134.529 C260.127,130.784 261.41,127.201 262.205,123.52 C262.887,120.365 263.633,117.136 264.81,114.124 C266.926,108.709 269.313,105.187 273.253,101.874 C276.661,99.008 281.357,96.943 286.675,95.489 C292.302,93.95 298.812,93.539 305.005,93.566 C334.714,93.696 365.636,106.218 390.294,122.084 C397.634,126.808 404.515,132.173 410.62,138.425 C416.475,144.424 419.089,149.276 422.585,156.431 C426.216,152.563 429.845,148.696 433.474,144.827 C430.003,143.807 427.113,144.616 423.656,145.025 C421.004,145.338 418.443,147.677 418.525,150.478 C418.654,154.977 421.086,157.043 424.845,159.005 C431.222,162.333 439.234,154.385 437.406,147.983 C435.851,142.533 431.683,137.348 428.162,132.99 C424.057,127.908 419.197,123.454 414.123,119.363 C402.047,109.631 388.521,101.949 374.309,95.798 C347.674,84.271 314.766,75.986 286.069,84.306 C275.788,87.287 266.192,93.369 260.113,102.299 C256.885,107.04 254.784,112.303 253.786,117.945 C253.257,120.945 253.212,123.898 253.45,126.926 C253.696,130.037 255.147,132.75 255.999,135.726 C256.555,137.667 259.565,135.903 259.715,134.529 L259.715,134.529 Z" id="Shape" fill="#010101"></path>
                    <path d="M194.479,70.552 C196.313,61.412 197.27,52.932 202.508,44.903 C207.442,37.344 214.289,31.135 221.826,26.255 C237.737,15.949 256.926,10.887 275.711,14.196 C296.445,17.85 314.574,31.362 324.897,49.59 C329.219,57.221 333.243,65.045 336.561,73.168 C338.09,76.914 339.545,80.82 340.159,84.832 C340.399,86.399 340.44,87.952 340.343,88.59 C340.159,89.777 339.794,90.424 339.841,91.776 C339.9,93.448 340.212,90.439 339.792,91.927 C338.247,97.398 344.802,99.19 348.577,96.833 C357.774,91.094 356.411,81.45 353.634,72.465 C350.771,63.204 345.976,54.47 341.212,46.076 C330.101,26.491 314.589,11.638 292.917,4.393 C271.907,-2.631 249.943,1.086 230.29,10.242 C211.83,18.84 194.962,33.676 188.999,53.641 C187.282,59.393 186.739,66.679 189.298,72.221 C190.487,74.796 194.073,72.569 194.479,70.552 L194.479,70.552 Z" id="Shape" fill="#010101"></path>
                    <path d="M62.87,112.916 C49.399,116.622 57.124,133.071 61.696,140.625 C70.094,154.5 81.925,166.537 93.368,177.911 C121.83,206.203 158.321,224.064 196.87,234.384 C240.077,245.95 285.684,247.719 330.071,243.785 C352.46,241.801 374.669,238.137 396.628,233.372 C418.003,228.734 439.923,222.975 459.226,212.55 C462.298,210.89 464.206,203.703 458.775,204.516 C435.103,208.06 411.992,215.595 388.502,220.411 C363.807,225.474 338.645,228.555 313.473,229.787 C263.489,232.233 212.325,226.447 165.846,207.136 C149.318,200.269 132.612,191.692 118.266,180.914 C117.864,180.611 117.467,180.301 117.071,179.99 C118.229,180.897 116.169,179.257 115.897,179.035 C114.178,177.634 112.485,176.2 110.799,174.758 C106.301,170.909 101.871,166.974 97.516,162.963 C88.03,154.227 78.873,145.007 70.977,134.789 C68.13,131.104 65.716,127.234 63.928,122.931 C63.407,121.676 62.963,120.192 63.164,118.899 C63.225,118.501 64.227,115.499 63.422,117.769 C63.598,117.272 63.899,116.957 64.301,116.589 C65.948,115.081 65.535,112.182 62.87,112.916 L62.87,112.916 Z" id="Shape" fill="#010101"></path>
                    <path d="M126.746,214.573 C138.464,222.521 152.212,226.39 165.917,229.406 C180.146,232.536 194.829,233.767 209.358,234.424 C239.655,235.793 269.512,232.463 299.079,225.874 C349.118,214.723 398.868,196.082 443.673,171.119 C463.679,159.972 482.739,146.846 499.831,131.579 C508.31,124.006 516.21,115.752 523.395,106.944 C527.125,102.371 530.592,97.546 533.575,92.454 C536.47,87.515 539.565,83.352 540.165,77.548 C540.638,72.962 535.936,72.616 533.042,75.01 C528.354,78.886 525.587,83.691 521.772,88.349 C517.809,93.187 513.987,98.113 509.889,102.844 C502.182,111.745 493.537,119.847 484.52,127.402 C465.815,143.076 444.727,155.787 423.047,166.881 C401.604,177.853 379.242,186.909 356.565,194.985 C329.526,204.614 301.836,212.639 273.534,217.575 C249.606,221.747 225.493,222.872 201.243,222.073 C176.653,221.262 153.423,216.052 129.827,209.511 C127.349,208.824 124.225,212.863 126.746,214.573 L126.746,214.573 Z" id="Shape" fill="#010101"></path>
                    <path d="M3.022,131.537 C12.909,124.002 24.526,118.499 35.792,113.358 C47.823,107.867 60.616,103.837 73.417,100.588 C86.103,97.368 99.063,95.256 112.065,93.817 C118.255,93.132 124.469,92.677 130.688,92.366 C136.54,92.073 142.441,92.852 148.241,92.507 C155.2,92.091 160.018,79.43 150.931,79.951 C147.555,80.145 144.563,81.202 142.039,83.504 C140.816,84.62 139.377,86.866 140.262,88.606 C141.586,91.21 143.794,92.265 146.66,92.434 C148.611,88.298 150.56,84.162 152.51,80.025 C146.59,79.689 140.418,80.613 134.496,81.057 C127.769,81.563 121.066,82.178 114.375,83.038 C100.381,84.837 86.512,87.675 72.921,91.457 C59.714,95.132 46.902,99.993 34.602,106.042 C22.18,112.15 11.506,120.317 1.305,129.58 C-0.328,131.063 1.309,132.841 3.022,131.537 L3.022,131.537 Z" id="Shape" fill="#010101"></path>
                    <path d="M346.018,73.958 C358.289,75.786 370.543,76.237 382.76,78.809 C396.291,81.656 409.424,85.815 422.391,90.567 C435.274,95.289 447.787,100.899 460.086,106.969 C471.943,112.821 483.369,119.733 495.772,124.271 C498.434,125.246 503.631,121.507 500.903,118.765 C491.917,109.731 480.374,103.604 469.014,97.937 C456.188,91.539 442.885,86.092 429.356,81.374 C416.045,76.733 402.284,73.155 388.424,70.612 C375.631,68.266 361.227,65.873 348.215,67.534 C345.567,67.872 341.747,73.322 346.018,73.958 L346.018,73.958 Z" id="Shape" fill="#010101"></path>
                    <path d="M94.859,110.371 C74.79,116.91 63.245,140.353 59.013,159.599 C54.238,181.32 58.112,203.709 67.446,223.616 C86.678,264.632 120.026,297.284 159.444,319.038 C198.928,340.829 244.315,351.324 289.292,350.765 C312.948,350.471 336.665,346.67 359.317,339.882 C386.469,331.745 411.395,318.196 434.932,302.646 C447.432,294.387 459.127,285.252 470.194,275.168 C473.327,272.314 471.176,267.397 466.997,269.836 C442.661,284.039 419.661,300.413 394.308,312.881 C370.98,324.353 346.021,331.82 320.245,335.142 C276.063,340.836 230.129,334.218 189.154,316.852 C147.823,299.333 112.155,270.287 88.27,232.133 C76.448,213.251 68.524,192.792 68.823,170.277 C68.964,159.626 71.147,148.949 75.503,139.223 C80.071,129.025 87.399,121.926 94.991,114.053 C95.304,113.742 95.616,113.432 95.929,113.121 C97.039,112.016 96.913,109.702 94.859,110.371 L94.859,110.371 Z" id="Shape" fill="#010101"></path>
                    <path d="M497.782,139.077 C496.282,150.966 497.794,163.388 497.833,175.347 C497.868,186.771 495.913,197.825 492.813,208.785 C487.209,228.597 477.233,247.059 465.088,263.592 C453.053,279.977 438.502,294.363 422.883,307.316 C415.08,313.786 406.973,319.978 398.563,325.637 C389.993,331.405 380.788,336.724 372.672,343.105 C370.408,344.884 371.233,348.729 374.477,347.744 C383.942,344.871 393.434,339.283 401.778,334.045 C411.305,328.065 420.53,321.673 429.341,314.676 C446.571,300.993 462.085,285.038 475.112,267.301 C488.014,249.736 497.967,230.19 504.169,209.29 C507.462,198.195 509.294,186.978 509.216,175.394 C509.132,162.831 507.755,149.084 504.392,136.949 C503.424,133.459 498.084,136.676 497.782,139.077 L497.782,139.077 Z" id="Shape" fill="#010101"></path>
                    <path d="M114.383,242.572 C121.912,265.374 140.973,281.047 161.431,292.289 C185.801,305.682 212.971,315.617 239.973,322.065 C296.399,335.541 355.536,330.794 410.119,311.845 C432.826,303.962 455.256,293.779 474.744,279.63 C476.695,278.214 475.926,274.366 473.166,275.571 C445.432,287.681 418.58,300.951 389.314,309.225 C361.371,317.126 332.339,320.799 303.314,320.304 C273.921,319.802 244.707,314.345 216.748,305.419 C202.912,301.002 189.383,295.44 176.137,289.5 C165.209,284.6 154.664,279.057 144.944,272.023 C133.579,263.799 124.483,252.486 116.604,240.984 C115.856,239.892 114.043,241.544 114.383,242.572 L114.383,242.572 Z" id="Shape" fill="#010101"></path>
                    <path d="M184.149,262.128 C188.389,265.403 192.532,269.076 197.285,271.607 C202.483,274.374 207.985,276.513 213.576,278.334 C225.349,282.168 237.639,284.233 249.895,285.788 C272.528,288.659 295.342,290.963 318.172,291.062 C366.49,291.273 415.44,282.135 459.604,262.307 C473.436,256.097 486.637,248.503 498.956,239.664 C510.829,231.145 522.351,221.498 530.395,209.206 C532.635,205.782 529.067,203.307 526.141,205.833 C517.465,213.326 509.12,221.239 500.016,228.245 C490.764,235.365 480.819,241.522 470.528,247.015 C449.155,258.421 426.083,266.37 402.567,272.014 C378.805,277.717 354.475,280.702 330.081,281.768 C306.878,282.781 283.843,280.925 260.735,279.032 C247.762,277.969 234.822,276.486 222.044,273.984 C215.542,272.71 209.056,271.028 202.796,268.851 C196.698,266.73 190.413,264.617 185.126,260.841 C184.491,260.389 183.458,261.594 184.149,262.128 L184.149,262.128 Z" id="Shape" fill="#010101"></path>
                    <path d="M64.538,85.523 C69.367,83.364 73.663,79.842 78.11,76.997 C83.303,73.675 88.682,70.63 94.126,67.737 C105.157,61.872 116.714,57.055 128.53,53.018 C151.817,45.063 177.245,39.935 201.945,41.58 C203.054,38.337 204.165,35.094 205.274,31.851 C202.198,31.812 199.665,32.186 196.827,33.379 C194.696,34.275 191.305,38.143 194.557,39.981 C197.352,41.559 200.012,41.677 203.176,41.637 C208.635,41.569 212.383,31.927 205.274,31.851 C178.887,31.568 152.882,36.756 128.137,45.77 C115.696,50.301 103.623,55.897 92.061,62.339 C86.637,65.361 81.389,68.671 76.27,72.184 C71.502,75.455 66.29,78.842 62.743,83.476 C61.577,85 62.999,86.211 64.538,85.523 L64.538,85.523 Z" id="Shape" fill="#010101"></path>
                    <path d="M318.364,28.839 C332.46,27.77 346.135,28.643 359.909,31.863 C374.016,35.161 387.583,40.48 400.977,45.918 C412.805,50.72 422.987,55.356 434.606,62.111 C448.542,70.213 462.221,78.821 475.401,88.105 C483.505,93.814 497.055,102.096 500.755,110.693 C500.95,111.147 501.474,112.969 501.278,111.594 C501.44,112.726 501.352,108.634 501.264,112.178 C501.287,111.183 501.619,110.507 502.291,109.799 C501.076,111.08 499.375,115.143 502.643,115.354 C507.389,115.661 511.086,111.7 510.729,106.967 C510.418,102.878 505.442,99.075 502.61,96.675 C491.219,87.016 478.674,78.841 466.042,70.922 C453.622,63.136 440.948,55.679 427.935,48.921 C424.087,46.922 420.193,45.305 416.152,43.756 C403.422,38.876 390.728,33.912 377.683,29.923 C359.087,24.235 337.521,19.579 318.587,26.165 C317.413,26.575 316.448,28.985 318.364,28.839 L318.364,28.839 Z" id="Shape" fill="#010101"></path>
                    <path d="M192.065,12.043 C181.553,11.809 171.182,14.812 161.221,17.894 C150.643,21.167 140.313,25.133 130.195,29.624 C110.091,38.549 91.191,50.914 75.274,66.117 C40.211,99.605 23.835,148.629 35.784,196.116 C39.772,211.963 46.993,226.761 55.364,240.716 C63.86,254.882 74.305,268.749 86.378,280.071 C88.374,281.944 92.805,278.946 91.475,276.433 C85.187,264.552 77.509,253.28 70.396,241.88 C63.312,230.53 57.054,218.63 52.097,206.201 C42.238,181.475 40.701,155.195 47.46,129.483 C59.021,85.514 94.997,55.761 134.233,36.444 C143.512,31.875 153.118,28.004 162.872,24.573 C172.69,21.12 182.721,18.267 192.167,13.851 C193.008,13.459 193.204,12.069 192.065,12.043 L192.065,12.043 Z" id="Shape" fill="#000000"></path>
                    <path d="M379.938,33.838 C390.079,36.509 399.674,39.304 409.02,44.228 C418.79,49.375 427.963,55.768 436.54,62.701 C452.563,75.654 464.011,93.509 470.786,112.837 C477.522,132.055 479.091,153.097 476.182,173.194 C474.725,183.261 472,193.151 468.276,202.609 C466.436,207.287 464.575,211.959 462.421,216.505 C460.753,220.028 458.525,223.502 458.126,226.66 C457.638,230.532 462.237,229.067 463.485,226.911 C465.092,224.132 468.801,219.998 470.915,216.586 C473.847,211.853 476.378,206.908 478.44,201.735 C482.547,191.433 485.227,180.605 486.71,169.627 C489.599,148.219 487.362,126.323 480.03,106.002 C472.676,85.619 459.577,67.625 442.557,54.277 C433.086,46.849 422.5,40.74 411.409,36.096 C401.929,32.128 390.69,28.51 380.45,31.453 C379.485,31.732 378.547,33.472 379.938,33.838 L379.938,33.838 Z" id="Shape" fill="#000000"></path>
                </g>
            </g>
        </g>
    </g>
</svg>
